assets/img/braze_icons/podcast.svg

<svg fill="none" height="24" viewBox="0 0 24 24" width="24" xmlns="http://www.w3.org/2000/svg"><g clip-rule="evenodd" fill="#801ed7" fill-rule="evenodd"><path d="m9 18c0-1.6569 1.3431-3 3-3s3 1.3431 3 3v2c0 1.6569-1.3431 3-3 3s-3-1.3431-3-3z"/><path d="m2 10.785c0-5.42665 4.50023-9.785 10-9.785 5.4998 0 10 4.35835 10 9.785 0 3.3469-1.7212 6.2851-4.3209 8.0433-.4575.3094-1.0792.1894-1.3886-.2681s-.1893-1.0791.2681-1.3885c2.0872-1.4116 3.4414-3.7478 3.4414-6.3867 0-4.27676-3.5589-7.785-8-7.785-4.44107 0-8 3.50824-8 7.785 0 2.6389 1.3542 4.9751 3.44135 6.3867.45748.3094.57752.931.26812 1.3885-.30941.4575-.93109.5775-1.38857.2681-2.59968-1.7582-4.3209-4.6964-4.3209-8.0433z"/><path d="m12 7c-2.25775 0-4 1.727-4 3.7505 0 .9746.40019 1.8686 1.07055 2.5462.38843.3926.38503 1.0258-.00758 1.4142s-1.02576.385-1.41419-.0076c-1.01147-1.0224-1.64878-2.4111-1.64878-3.9528 0-3.22329 2.73536-5.7505 6-5.7505 3.2646 0 6 2.52721 6 5.7505 0 1.5426-.6374 2.9305-1.6488 3.9528-.3884.3926-1.0216.396-1.4142.0076s-.396-1.0216-.0076-1.4142c.6705-.6777 1.0706-1.5708 1.0706-2.5462 0-2.0235-1.7422-3.7505-4-3.7505z"/><path d="m10 11c0-1.10457.8954-2 2-2s2 .89543 2 2c0 1.1046-.8954 2-2 2s-2-.8954-2-2z"/></g></svg>

<svg width="24" height="24" viewBox="0 0 24 24" fill="none" xmlns="http://www.w3.org/2000/svg">
<path fill-rule="evenodd" clip-rule="evenodd" d="M9 18C9 16.3431 10.3431 15 12 15C13.6569 15 15 16.3431 15 18V20C15 21.6569 13.6569 23 12 23C10.3431 23 9 21.6569 9 20V18Z" fill="#801ED7"/>
<path fill-rule="evenodd" clip-rule="evenodd" d="M2 10.785C2 5.35835 6.50023 1 12 1C17.4998 1 22 5.35835 22 10.785C22 14.1319 20.2788 17.0701 17.6791 18.8283C17.2216 19.1377 16.5999 19.0177 16.2905 18.5602C15.9811 18.1027 16.1012 17.4811 16.5586 17.1717C18.6458 15.7601 20 13.4239 20 10.785C20 6.50824 16.4411 3 12 3C7.55893 3 4 6.50824 4 10.785C4 13.4239 5.3542 15.7601 7.44135 17.1717C7.89883 17.4811 8.01887 18.1027 7.70947 18.5602C7.40006 19.0177 6.77838 19.1377 6.3209 18.8283C3.72122 17.0701 2 14.1319 2 10.785Z" fill="#801ED7"/>
<path fill-rule="evenodd" clip-rule="evenodd" d="M12 7C9.74225 7 8 8.727 8 10.7505C8 11.7251 8.40019 12.6191 9.07055 13.2967C9.45898 13.6893 9.45558 14.3225 9.06297 14.7109C8.67036 15.0993 8.03721 15.0959 7.64878 14.7033C6.63731 13.6809 6 12.2922 6 10.7505C6 7.52721 8.73536 5 12 5C15.2646 5 18 7.52721 18 10.7505C18 12.2931 17.3626 13.681 16.3512 14.7033C15.9628 15.0959 15.3296 15.0993 14.937 14.7109C14.5444 14.3225 14.541 13.6893 14.9294 13.2967C15.5999 12.619 16 11.7259 16 10.7505C16 8.727 14.2578 7 12 7Z" fill="#801ED7"/>
<path fill-rule="evenodd" clip-rule="evenodd" d="M10 11C10 9.89543 10.8954 9 12 9C13.1046 9 14 9.89543 14 11C14 12.1046 13.1046 13 12 13C10.8954 13 10 12.1046 10 11Z" fill="#801ED7"/>
</svg>
